X:8
T:boerenplof                           %title
C:                           %composer
O:                           %origin
M:2/4                           % type of bar  4/4 or 3/4
L:1/16                           % length of shortest note
Q:                           %tempo  Q:1/4=80
K:C                           %key C  Cm
"G" GABc dcBd |"C" c2c2 c4||
"C"cGEG "F"FAGF |"C" EDCE "F" FAGF |"C" EDCD EDCE|"G"D2G2G4|
"C"cGEG "F"FAGF |"C" EDCE "F" FAGF |"G" GABc dcBd|"C" c2c2 c4:|
|:"G"dBGB d2d2|"D7" edcA "G"G4|dBGB d2d2|"D7" edcA "G" G4|
"F" AFCF AcBA|"C" GECE GcBA|"G"GABc dcAd| "C" c2c2 c4:|
